svg/ammunition.svg

<svg xmlns="http://www.w3.org/2000/svg" viewBox="0 0 24 24"><path d="M14 22h-4v-1h4zm-1-12V7h-2v3l-1 1.5V20h4v-8.5zm-1-8s-1 1-1 3v1h2V5s0-2-1-3M8 22H4v-1h4zM7 10V7H5v3l-1 1.5V20h4v-8.5zM6 2S5 3 5 5v1h2V5s0-2-1-3m14 20h-4v-1h4zm-1-12V7h-2v3l-1 1.5V20h4v-8.5zm-1-8s-1 1-1 3v1h2V5s0-2-1-3"/></svg>

<?xml version="1.0" encoding="UTF-8"?><!DOCTYPE svg PUBLIC "-//W3C//DTD SVG 1.1//EN" "http://www.w3.org/Graphics/SVG/1.1/DTD/svg11.dtd"><svg xmlns="http://www.w3.org/2000/svg" xmlns:xlink="http://www.w3.org/1999/xlink" version="1.1" id="mdi-ammunition" width="24" height="24" viewBox="0 0 24 24"><path d="M14,22H10V21H14V22M13,10V7H11V10L10,11.5V20H14V11.5L13,10M12,2C12,2 11,3 11,5V6H13V5C13,5 13,3 12,2M8,22H4V21H8V22M7,10V7H5V10L4,11.5V20H8V11.5L7,10M6,2C6,2 5,3 5,5V6H7V5C7,5 7,3 6,2M20,22H16V21H20V22M19,10V7H17V10L16,11.5V20H20V11.5L19,10M18,2C18,2 17,3 17,5V6H19V5C19,5 19,3 18,2Z" /></svg>
